; generated by PrusaSlicer 2.3.3+win64 on 2021-11-11 at 13:32:18 UTC

; 

; external perimeters extrusion width = 0.45mm
; perimeters extrusion width = 0.45mm
; infill extrusion width = 0.45mm
; solid infill extrusion width = 0.45mm
; top infill extrusion width = 0.40mm
; support material extrusion width = 0.35mm
; first layer extrusion width = 0.42mm

M73 P0 R221
M73 Q0 S225
M201 X1000 Y1000 Z200 E5000 ; sets maximum accelerations, mm/sec^2
M203 X200 Y200 Z12 E120 ; sets maximum feedrates, mm/sec
M204 P1250 R1250 T1250 ; sets acceleration (P, T) and retract acceleration (R), mm/sec^2
M205 X8.00 Y8.00 Z0.40 E4.50 ; sets the jerk limits, mm/sec
M205 S0 T0 ; sets the minimum extruding and travel feed rate, mm/sec
M107
;TYPE:Custom
M862.3 P "MK3S" ; printer model check
M862.1 P0.4 ; nozzle diameter check
M115 U3.10.0 ; tell printer latest fw version
G90 ; use absolute coordinates
M83 ; extruder relative mode
M104 S245 ; set extruder temp
M140 S85 ; set bed temp
M190 S85 ; wait for bed temp
M109 S245 ; wait for extruder temp
G28 W ; home all without mesh bed level
G80 ; mesh bed leveling
G1 Y-3.0 F1000.0 ; go outside print area
G92 E0.0
G1 X60.0 E9.0 F1000.0 ; intro line
G1 X100.0 E12.5 F1000.0 ; intro line
G92 E0.0
M221 S95

; Don't change E values below. Excessive value can damage the printer.

M907 E538 ; set extruder motor current
G21 ; set units to millimeters
G90 ; use absolute coordinates
M83 ; use relative distances for extrusion
M900 K0.08 ; Filament gcode LA 1.5
M900 K45 ; Filament gcode LA 1.0
;LAYER_CHANGE
;Z:0.2
;HEIGHT:0.2
;BEFORE_LAYER_CHANGE
G92 E0.0
;0.2


G1 E-1.00000 F2100.000
G1 Z0.200 F10800.000
;AFTER_LAYER_CHANGE
;0.2
G1 Z0.400
G1 X55.669 Y38.700
G1 Z0.200
G1 E1.00000 F2100.000
M204 S1000
;TYPE:Skirt
;WIDTH:0.42
G1 F1200.000
G1 X56.138 Y37.957 E0.03030
G1 X58.735 Y35.521 E0.12280
G1 X59.378 Y35.186 E0.02499
G1 X60.087 Y35.060 E0.02486
G1 X187.600 Y34.890 E4.39786
G1 X190.600 Y35.085 E0.10372
G1 X191.126 Y35.225 E0.01875
G1 X191.605 Y35.480 E0.01875
G1 X192.068 Y35.898 E0.02148
G1 X194.072 Y38.387 E0.11023
G1 X194.371 Y38.980 E0.02291
G1 X194.495 Y39.637 E0.02304
G1 X194.497 Y170.437 E4.51127
M73 P0 R220
G1 X194.331 Y171.300 E0.03030
G1 X193.862 Y172.043 E0.03030
G1 X191.391 Y174.380 E0.11731
G1 X190.554 Y174.836 E0.03288
G1 X189.954 Y174.938 E0.02096
G1 X183.865 Y175.110 E0.21012
G1 X60.881 Y175.110 E4.24166
G1 X59.078 Y174.845 E0.06286
G1 X58.570 Y174.630 E0.01901
G1 X58.126 Y174.305 E0.01901
G1 X55.890 Y171.556 E0.12221
G1 X55.607 Y170.951 E0.02304
G1 X55.503 Y170.291 E0.02304
G1 X55.503 Y39.563 E4.50877
M73 Q0 S224
G1 X55.658 Y38.759 E0.02823
;WIPE_START
G1 F8640.000
G1 X56.138 Y37.957 E-0.21584
G1 X58.457 Y35.782 E-0.73416
;WIPE_END
G1 E-0.05000 F2100.000
G1 Z0.400 F10800.000
G1 X55.314 Y56.954
G1 Z0.200
G1 E1.00000 F2100.000
G1 F1200.000
G1 X55.131 Y56.637 E0.01262
G1 X54.754 Y56.395 E0.01547
G1 X54.042 Y55.662 E0.03524
G1 X53.368 Y54.557 E0.04464
G1 X52.978 Y53.063 E0.05326
G1 X52.987 Y38.995 E0.48519
G1 X53.340 Y37.676 E0.04711
G1 X54.042 Y36.560 E0.04546
G1 X54.957 Y35.701 E0.04328
G1 X55.769 Y35.252 E0.03201
G1 X56.261 Y34.415 E0.03349
G1 X57.239 Y33.466 E0.04700
G1 X58.237 Y32.902 E0.03955
G1 X59.127 Y32.616 E0.03223
G1 X61.357 Y32.535 E0.07696
G1 X72.964 Y32.535 E0.40031
G1 X74.089 Y32.747 E0.03951
G1 X75.430 Y33.415 E0.05167
G1 X76.468 Y34.405 E0.04945
G1 X76.724 Y34.850 E0.01771
G1 X76.941 Y35.226 F10800.000
G1 F1200.000
G1 X77.194 Y35.667 E0.01754
G1 X77.445 Y35.825 E0.01023
G1 X78.390 Y36.768 E0.04604
G1 X79.098 Y38.074 E0.05124
G1 X79.362 Y39.270 E0.04223
G1 X79.373 Y42.287 E0.10404
G1 X170.627 Y42.287 E3.14731
G1 X170.627 Y39.393 E0.09981
G1 X170.875 Y38.150 E0.04373
G1 X171.613 Y36.765 E0.05412
G1 X172.624 Y35.775 E0.04879
G1 X172.859 Y35.628 E0.00956
G1 X173.077 Y35.098 E0.01976
G1 X173.332 Y34.721 F10800.000
G1 F1200.000
G1 X173.658 Y34.257 E0.01954
G1 X174.397 Y33.548 E0.03533
G1 X175.264 Y33.004 E0.03532
G1 X176.940 Y32.535 E0.06003
G1 X187.221 Y32.537 E0.35457
G1 X187.434 Y32.560 E0.00740
G1 X188.035 Y32.535 E0.02073
G1 X190.698 Y32.540 E0.09186
G1 X192.009 Y32.839 E0.04638
G1 X193.180 Y33.480 E0.04603
G1 X194.179 Y34.469 E0.04848
G1 X194.841 Y35.677 E0.04752
G1 X195.194 Y35.904 E0.01448
G1 X196.093 Y36.847 E0.04491
G1 X196.630 Y37.780 E0.03713
G1 X197.000 Y39.112 E0.04770
G1 X197.022 Y53.282 E0.48870
G1 X196.660 Y54.661 E0.04919
G1 X196.053 Y55.662 E0.04036
G1 X194.928 Y56.718 E0.05322
G1 X194.684 Y56.847 E0.00955
G1 X194.307 Y57.046 F10800.000
G1 F1200.000
G1 X194.210 Y57.097 E0.00377
G1 X193.760 Y57.900 E0.03174
G1 X192.773 Y58.865 E0.04759
G1 X191.686 Y59.470 E0.04292
G1 X190.432 Y59.784 E0.04460
G1 X187.713 Y59.796 E0.09375
G1 X187.713 Y150.201 E3.11804
G1 X190.723 Y150.205 E0.10381
G1 X192.039 Y150.512 E0.04661
G1 X193.186 Y151.145 E0.04517
G1 X194.182 Y152.133 E0.04840
G1 X194.308 Y152.360 E0.00894
G1 X194.685 Y153.036 F10800.000
G1 F1200.000
G1 X194.866 Y153.361 E0.01280
G1 X195.246 Y153.605 E0.01559
G1 X195.957 Y154.337 E0.03518
G1 X196.624 Y155.422 E0.04395
G1 X197.013 Y156.871 E0.05174
G1 X197.013 Y171.003 E0.48741
G1 X196.660 Y172.324 E0.04716
G1 X195.958 Y173.440 E0.04547
G1 X195.043 Y174.299 E0.04328
G1 X194.233 Y174.746 E0.03193
G1 X193.770 Y175.545 E0.03183
G1 X192.851 Y176.465 E0.04487
G1 X191.984 Y177.003 E0.03518
G1 X191.014 Y177.352 E0.03554
G1 X188.844 Y177.466 E0.07496
G1 X184.261 Y177.465 E0.15806
G1 X183.657 Y177.440 E0.02086
G1 X183.417 Y177.465 E0.00831
G1 X177.422 Y177.465 E0.20676
G1 X176.275 Y177.246 E0.04028
G1 X174.904 Y176.546 E0.05310
G1 X173.840 Y175.493 E0.05165
G1 X173.729 Y175.298 E0.00772
G1 X173.513 Y174.921 F10800.000
G1 F1200.000
G1 X173.411 Y174.741 E0.00714
G1 X172.560 Y174.266 E0.03359
G1 X171.574 Y173.305 E0.04750
G1 X170.942 Y172.211 E0.04359
G1 X170.642 Y171.002 E0.04297
G1 X170.627 Y167.714 E0.11340
G1 X79.373 Y167.714 E3.14732
G1 X79.373 Y170.867 E0.10878
G1 X79.057 Y172.210 E0.04758
G1 X78.309 Y173.451 E0.04998
G1 X77.402 Y174.294 E0.04270
G1 X76.567 Y174.753 E0.03287
G1 X76.469 Y174.921 E0.00672
G1 X76.248 Y175.298 F10800.000
G1 F1200.000
G1 X76.050 Y175.638 E0.01356
G1 X75.250 Y176.421 E0.03863
G1 X74.241 Y177.044 E0.04090
G1 X72.683 Y177.465 E0.05564
G1 X65.104 Y177.465 E0.26139
G1 X64.500 Y177.440 E0.02088
G1 X64.260 Y177.465 E0.00831
G1 X61.334 Y177.465 E0.10093
G1 X60.729 Y177.440 E0.02088
G1 X60.489 Y177.465 E0.00831
G1 X59.282 Y177.465 E0.04164
G1 X57.795 Y177.081 E0.05296
G1 X56.469 Y176.228 E0.05439
G1 X55.634 Y175.268 E0.04388
G1 X55.148 Y174.306 E0.03718
G1 X54.729 Y174.031 E0.01725
G1 X53.745 Y172.927 E0.05103
G1 X53.318 Y172.102 E0.03204
G1 X53.052 Y171.241 E0.03107
G1 X52.977 Y156.822 E0.49731
G1 X53.127 Y155.914 E0.03176
G1 X53.982 Y154.283 E0.06352
G1 X54.969 Y153.353 E0.04674
G1 X55.314 Y153.164 E0.01360
G1 X55.692 Y152.957 F10800.000
G1 F1200.000
G1 X55.778 Y152.910 E0.00339
G1 X56.237 Y152.104 E0.03202
G1 X57.131 Y151.208 E0.04365
G1 X58.302 Y150.535 E0.04657
G1 X59.656 Y150.206 E0.04806
G1 X62.287 Y150.202 E0.09073
G1 X62.287 Y59.804 E3.11779
G1 X61.334 Y59.804 E0.03286
G1 X60.729 Y59.779 E0.02088
G1 X60.489 Y59.804 E0.00832
G1 X59.279 Y59.795 E0.04174
G1 X57.974 Y59.494 E0.04617
G1 X56.845 Y58.877 E0.04438
G1 X55.915 Y57.994 E0.04425
G1 X55.691 Y57.606 E0.01542
G1 X55.691 Y56.861 F10800.000
G1 F1200.000
G1 X56.196 Y57.741 E0.03499
G1 X57.048 Y58.559 E0.04073
G1 X58.132 Y59.150 E0.04257
G1 X59.341 Y59.423 E0.04275
G1 X60.479 Y59.427 E0.03925
G1 X60.716 Y59.401 E0.00822
G1 X61.338 Y59.427 E0.02147
G1 X62.664 Y59.427 E0.04573
G1 X62.664 Y150.580 E3.14383
G1 X59.723 Y150.578 E0.10143
G1 X58.418 Y150.895 E0.04632
G1 X57.343 Y151.520 E0.04288
G1 X56.524 Y152.350 E0.04020
G1 X56.053 Y153.190 E0.03323
G1 X55.692 Y153.385 E0.01418
G1 X55.314 Y153.589 F10800.000
G1 F1200.000
G1 X55.206 Y153.647 E0.00423
G1 X54.301 Y154.487 E0.04261
G1 X53.475 Y156.061 E0.06129
G1 X53.355 Y156.835 E0.02702
G1 X53.421 Y171.158 E0.49399
G1 X53.661 Y171.944 E0.02836
G1 X54.068 Y172.732 E0.03060
G1 X54.991 Y173.759 E0.04761
G1 X55.438 Y174.043 E0.01826
G1 X55.934 Y175.039 E0.03838
G1 X56.736 Y175.960 E0.04212
G1 X57.920 Y176.724 E0.04861
G1 X59.307 Y177.088 E0.04943
G1 X60.478 Y177.088 E0.04042
G1 X60.716 Y177.062 E0.00823
G1 X61.338 Y177.088 E0.02147
G1 X64.249 Y177.088 E0.10042
G1 X64.486 Y177.062 E0.00823
G1 X65.108 Y177.088 E0.02147
G1 X72.658 Y177.088 E0.26037
G1 X74.114 Y176.688 E0.05209
G1 X75.001 Y176.137 E0.03600
G1 X75.767 Y175.387 E0.03700
G1 X75.818 Y175.298 E0.00353
G1 X76.035 Y174.921 F10800.000
G1 F1200.000
G1 X76.293 Y174.472 E0.01786
G1 X77.163 Y174.001 E0.03413
G1 X78.032 Y173.193 E0.04091
G1 X78.718 Y172.043 E0.04620
G1 X78.996 Y170.846 E0.04237
G1 X78.996 Y167.336 E0.12105
G1 X171.004 Y167.336 E3.17330
M73 P0 R219
G1 X171.013 Y170.935 E0.12412
G1 X171.282 Y172.046 E0.03941
G1 X171.887 Y173.093 E0.04171
G1 X172.803 Y173.977 E0.04391
G1 X173.687 Y174.463 E0.03479
G1 X173.944 Y174.921 E0.01812
G1 X174.178 Y175.298 F10800.000
G1 F1200.000
G1 X175.102 Y176.224 E0.04511
G1 X176.422 Y176.898 E0.05111
G1 X177.439 Y177.088 E0.03570
G1 X183.406 Y177.088 E0.20580
G1 X183.644 Y177.062 E0.00823
G1 X184.265 Y177.088 E0.02146
G1 X188.840 Y177.089 E0.15778
G1 X190.915 Y176.987 E0.07165
G1 X191.802 Y176.671 E0.03249
G1 X192.633 Y176.156 E0.03370
G1 X193.485 Y175.298 E0.04171
G1 X193.958 Y174.466 E0.03301
G1 X194.803 Y174.007 E0.03317
G1 X195.682 Y173.183 E0.04156
G1 X196.325 Y172.149 E0.04197
G1 X196.636 Y170.979 E0.04177
G1 X196.636 Y156.897 E0.48568
G1 X196.267 Y155.549 E0.04821
G1 X195.672 Y154.585 E0.03907
G1 X194.993 Y153.885 E0.03365
G1 X194.685 Y153.693 E0.01249
G1 X194.308 Y153.130 F10800.000
G1 F1200.000
G1 X193.896 Y152.380 E0.02951
G1 X192.980 Y151.462 E0.04473
G1 X191.881 Y150.855 E0.04330
G1 X190.661 Y150.578 E0.04316
G1 X188.036 Y150.573 E0.09052
G1 X187.336 Y150.602 E0.02416
G1 X187.336 Y59.419 E3.14488
G1 X190.365 Y59.412 E0.10444
G1 X191.525 Y59.128 E0.04121
G1 X192.567 Y58.548 E0.04113
G1 X193.474 Y57.652 E0.04399
G1 X193.934 Y56.815 E0.03295
G1 X194.307 Y56.623 E0.01444
G1 X194.684 Y56.428 F10800.000
G1 F1200.000
G1 X195.746 Y55.442 E0.04999
G1 X196.303 Y54.536 E0.03667
G1 X196.645 Y53.257 E0.04567
G1 X196.623 Y39.139 E0.48692
G1 X196.274 Y37.905 E0.04423
G1 X195.804 Y37.091 E0.03243
G1 X194.939 Y36.183 E0.04327
G1 X194.557 Y35.945 E0.01549
G1 X193.893 Y34.717 E0.04816
G1 X192.934 Y33.767 E0.04655
G1 X191.853 Y33.183 E0.04237
G1 X190.677 Y32.917 E0.04160
G1 X188.038 Y32.912 E0.09101
G1 X187.421 Y32.938 E0.02133
G1 X187.210 Y32.914 E0.00732
G1 X176.966 Y32.912 E0.35330
G1 X175.442 Y33.338 E0.05459
G1 X174.614 Y33.857 E0.03369
G1 X173.934 Y34.515 E0.03266
G1 X173.790 Y34.720 E0.00862
G1 X173.526 Y35.097 F10800.000
G1 F1200.000
G1 X173.414 Y35.259 E0.00680
G1 X173.161 Y35.888 E0.02338
G1 X172.868 Y36.063 E0.01175
G1 X171.932 Y36.969 E0.04494
G1 X171.221 Y38.302 E0.05211
G1 X171.004 Y39.411 E0.03897
G1 X171.004 Y42.664 E0.11219
G1 X78.996 Y42.664 E3.17330
M73 Q0 S223
G1 X78.989 Y39.329 E0.11501
G1 X78.754 Y38.230 E0.03876
G1 X78.072 Y36.973 E0.04931
G1 X77.198 Y36.111 E0.04235
G1 X76.867 Y35.912 E0.01331
G1 X76.803 Y35.728 E0.00672
G1 X76.515 Y35.227 E0.01992
G1 X76.298 Y34.850 F10800.000
G1 F1200.000
G1 X76.188 Y34.659 E0.00762
G1 X75.191 Y33.709 E0.04750
G1 X73.947 Y33.097 E0.04782
G1 X72.947 Y32.912 E0.03509
G1 X61.360 Y32.912 E0.39963
G1 X59.216 Y32.983 E0.07400
G1 X58.404 Y33.240 E0.02937
G1 X57.484 Y33.755 E0.03634
G1 X56.543 Y34.667 E0.04521
G1 X56.043 Y35.533 E0.03450
G1 X55.197 Y35.993 E0.03322
G1 X54.318 Y36.817 E0.04156
G1 X53.675 Y37.851 E0.04196
G1 X53.364 Y39.020 E0.04173
G1 X53.355 Y53.038 E0.48349
G1 X53.725 Y54.433 E0.04977
G1 X54.327 Y55.414 E0.03969
G1 X55.007 Y56.115 E0.03369
G1 X55.314 Y56.307 E0.01248
G1 X55.691 Y56.096 F10800.000
G1 F1200.000
G1 X55.778 Y56.148 E0.00347
G1 X55.849 Y56.379 E0.00834
G1 X56.479 Y57.490 E0.04404
G1 X57.254 Y58.241 E0.03723
G1 X58.241 Y58.788 E0.03894
G1 X59.403 Y59.050 E0.04107
G1 X60.467 Y59.050 E0.03671
G1 X60.701 Y59.023 E0.00813
G1 X61.342 Y59.050 E0.02210
G1 X63.041 Y59.050 E0.05860
G1 X63.041 Y150.958 E3.16988
G1 X59.789 Y150.950 E0.11213
G1 X58.534 Y151.254 E0.04455
G1 X57.557 Y151.832 E0.03914
G1 X56.813 Y152.594 E0.03676
G1 X56.330 Y153.471 E0.03453
G1 X55.692 Y153.809 E0.02492
G1 X55.314 Y154.061 F10800.000
G1 F1200.000
G1 X54.581 Y154.742 E0.03451
G1 X53.843 Y156.151 E0.05486
G1 X53.732 Y156.849 E0.02439
G1 X53.790 Y171.075 E0.49066
G1 X54.005 Y171.787 E0.02564
G1 X54.392 Y172.537 E0.02913
G1 X55.251 Y173.484 E0.04411
G1 X55.771 Y173.804 E0.02103
G1 X55.820 Y173.967 E0.00587
G1 X56.235 Y174.810 E0.03242
G1 X57.002 Y175.692 E0.04030
G1 X58.097 Y176.390 E0.04480
G1 X59.330 Y176.711 E0.04395
G1 X60.467 Y176.711 E0.03920
G1 X60.701 Y176.684 E0.00813
G1 X61.342 Y176.711 E0.02210
G1 X64.238 Y176.711 E0.09989
G1 X64.472 Y176.684 E0.00813
G1 X65.112 Y176.711 E0.02210
G1 X72.631 Y176.711 E0.25933
G1 X73.985 Y176.332 E0.04847
G1 X74.781 Y175.830 E0.03248
G1 X75.320 Y175.298 E0.02612
G1 X75.606 Y174.921 F10800.000
G1 F1200.000
G1 X76.018 Y174.191 E0.02894
G1 X76.925 Y173.708 E0.03543
G1 X77.755 Y172.936 E0.03908
G1 X78.378 Y171.877 E0.04238
G1 X78.619 Y170.825 E0.03723
G1 X78.619 Y166.959 E0.13333
G1 X171.380 Y166.959 E3.19931
G1 X171.385 Y170.871 E0.13490
G1 X171.623 Y171.882 E0.03581
G1 X172.200 Y172.880 E0.03979
G1 X173.045 Y173.686 E0.04026
G1 X173.965 Y174.184 E0.03609
G1 X174.370 Y174.921 E0.02901
G1 X174.706 Y175.298 F10800.000
G1 F1200.000
G1 X175.301 Y175.902 E0.02924
G1 X176.569 Y176.549 E0.04908
G1 X177.456 Y176.711 E0.03111
G1 X183.395 Y176.711 E0.20483
G1 X183.629 Y176.684 E0.00813
G1 X184.269 Y176.711 E0.02209
G1 X188.836 Y176.712 E0.15750
G1 X190.815 Y176.622 E0.06833
G1 X191.656 Y176.323 E0.03079
G1 X192.413 Y175.849 E0.03081
G1 X193.197 Y175.052 E0.03856
G1 X193.683 Y174.185 E0.03427
G1 X194.564 Y173.715 E0.03446
G1 X195.406 Y172.924 E0.03984
G1 X195.968 Y172.023 E0.03663
G1 X196.259 Y170.953 E0.03824
G1 X196.259 Y156.923 E0.48390
G1 X195.912 Y155.676 E0.04463
G1 X195.388 Y154.833 E0.03423
G1 X194.740 Y154.166 E0.03209
G1 X194.685 Y154.133 E0.00220
G1 X194.308 Y153.904 F10800.000
G1 F1200.000
G1 X194.224 Y153.853 E0.00340
G1 X194.158 Y153.640 E0.00770
G1 X193.578 Y152.585 E0.04150
G1 X192.772 Y151.778 E0.03934
G1 X191.770 Y151.217 E0.03962
G1 X190.598 Y150.950 E0.04147
G1 X188.040 Y150.950 E0.08820
G1 X187.400 Y150.977 E0.02209
G1 X186.959 Y150.931 E0.01529
G1 X186.959 Y59.042 E3.16923
G1 X190.299 Y59.040 E0.11519
G1 X191.365 Y58.786 E0.03778
G1 X192.360 Y58.232 E0.03930
G1 X193.188 Y57.406 E0.04032
G1 X193.658 Y56.531 E0.03426
G1 X194.307 Y56.204 E0.02505
G1 X194.684 Y55.918 F10800.000
G1 F1200.000
G1 X195.440 Y55.220 E0.03551
G1 X195.947 Y54.409 E0.03297
G1 X196.268 Y53.232 E0.04209
G1 X196.246 Y39.167 E0.48511
G1 X195.918 Y38.032 E0.04073
G1 X195.516 Y37.335 E0.02778
G1 X194.684 Y36.462 E0.04157
G1 X194.222 Y36.185 E0.01858
G1 X194.160 Y35.981 E0.00736
G1 X193.608 Y34.965 E0.03984
G1 X192.689 Y34.055 E0.04463
G1 X191.699 Y33.528 E0.03866
G1 X190.656 Y33.294 E0.03689
G1 X188.042 Y33.289 E0.09015
G1 X187.406 Y33.316 E0.02196
G1 X187.198 Y33.291 E0.00721
G1 X176.992 Y33.289 E0.35201
G1 X175.617 Y33.672 E0.04921
G1 X174.862 Y34.142 E0.03069
G1 X174.265 Y34.719 E0.02864
G1 X173.985 Y35.097 F10800.000
G1 F1200.000
G1 X173.737 Y35.455 E0.01503
G1 X173.463 Y36.151 E0.02579
G1 X173.110 Y36.353 E0.01403
G1 X172.250 Y37.173 E0.04099
G1 X171.568 Y38.454 E0.05005
G1 X171.381 Y39.428 E0.03421
G1 X171.381 Y43.041 E0.12459
G1 X78.620 Y43.041 E3.19931
G1 X78.616 Y39.386 E0.12606
G1 X78.409 Y38.385 E0.03525
G1 X77.754 Y37.179 E0.04733
G1 X76.953 Y36.399 E0.03857
G1 X76.549 Y36.164 E0.01611
G1 X76.465 Y35.895 E0.00972
G1 X76.080 Y35.228 E0.02657
G1 X75.854 Y34.851 F10800.000
G1 F1200.000
G1 X74.954 Y34.003 E0.04262
G1 X73.807 Y33.448 E0.04398
G1 X72.930 Y33.289 E0.03072
G1 X61.362 Y33.289 E0.39897
G1 X59.303 Y33.351 E0.07107
G1 X58.568 Y33.580 E0.02653
G1 X57.728 Y34.043 E0.03308
G1 X56.826 Y34.919 E0.04336
G1 X56.317 Y35.815 E0.03553
G1 X55.436 Y36.285 E0.03446
G1 X54.594 Y37.076 E0.03984
G1 X54.032 Y37.977 E0.03662
