; generated by PrusaSlicer 2.3.3+win64 on 2021-11-18 at 09:41:04 UTC

; 

; external perimeters extrusion width = 0.45mm
; perimeters extrusion width = 0.45mm
; infill extrusion width = 0.45mm
; solid infill extrusion width = 0.45mm
; top infill extrusion width = 0.40mm
; support material extrusion width = 0.35mm
; first layer extrusion width = 0.42mm

M73 P0 R294
M73 Q0 S299
M201 X1000 Y1000 Z200 E5000 ; sets maximum accelerations, mm/sec^2
M203 X200 Y200 Z12 E120 ; sets maximum feedrates, mm/sec
M204 P1250 R1250 T1250 ; sets acceleration (P, T) and retract acceleration (R), mm/sec^2
M205 X8.00 Y8.00 Z0.40 E4.50 ; sets the jerk limits, mm/sec
M205 S0 T0 ; sets the minimum extruding and travel feed rate, mm/sec
M107
;TYPE:Custom
M862.3 P "MK3S" ; printer model check
M862.1 P0.4 ; nozzle diameter check
M115 U3.10.0 ; tell printer latest fw version
G90 ; use absolute coordinates
M83 ; extruder relative mode
M104 S245 ; set extruder temp
M140 S85 ; set bed temp
M190 S85 ; wait for bed temp
M109 S245 ; wait for extruder temp
G28 W ; home all without mesh bed level
G80 ; mesh bed leveling
G1 Y-3.0 F1000.0 ; go outside print area
G92 E0.0
G1 X60.0 E9.0 F1000.0 ; intro line
G1 X100.0 E12.5 F1000.0 ; intro line
G92 E0.0
M221 S95

; Don't change E values below. Excessive value can damage the printer.

M907 E538 ; set extruder motor current
G21 ; set units to millimeters
G90 ; use absolute coordinates
M83 ; use relative distances for extrusion
M900 K0.08 ; Filament gcode LA 1.5
M900 K45 ; Filament gcode LA 1.0
;LAYER_CHANGE
;Z:0.2
;HEIGHT:0.2
;BEFORE_LAYER_CHANGE
G92 E0.0
;0.2


M73 P0 R293
G1 E-1.00000 F2100.000
G1 Z0.200 F10800.000
;AFTER_LAYER_CHANGE
;0.2
G1 Z0.400
G1 X55.675 Y38.686
G1 Z0.200
G1 E1.00000 F2100.000
M204 S1000
;TYPE:Skirt
;WIDTH:0.42
G1 F1200.000
G1 X56.156 Y37.937 E0.03069
G1 X58.738 Y35.519 E0.12202
G1 X59.378 Y35.186 E0.02486
G1 X60.091 Y35.060 E0.02499
G1 X190.256 Y35.060 E4.48935
G1 X190.748 Y35.111 E0.01705
G1 X191.214 Y35.262 E0.01692
G1 X191.641 Y35.505 E0.01692
G1 X192.008 Y35.830 E0.01692
G1 X194.116 Y38.454 E0.11610
G1 X194.391 Y39.042 E0.02239
G1 X194.496 Y39.683 E0.02239
G1 X194.497 Y170.437 E4.50969
M73 Q0 S298
G1 X194.325 Y171.314 E0.03082
G1 X193.844 Y172.063 E0.03069
G1 X191.259 Y174.483 E0.12215
G1 X190.612 Y174.817 E0.02512
G1 X189.897 Y174.940 E0.02499
G1 X59.732 Y174.940 E4.48935
G1 X58.856 Y174.768 E0.03082
G1 X58.107 Y174.287 E0.03069
G1 X55.888 Y171.553 E0.12146
G1 X55.607 Y170.951 E0.02291
G1 X55.503 Y170.291 E0.02304
G1 X55.503 Y39.563 E4.50877
G1 X55.663 Y38.745 E0.02875
;WIPE_START
G1 F8640.000
G1 X56.156 Y37.937 E-0.21840
G1 X58.468 Y35.771 E-0.73160
;WIPE_END
G1 E-0.05000 F2100.000
G1 Z0.400 F10800.000
G1 X55.314 Y56.960
G1 Z0.200
G1 E1.00000 F2100.000
G1 F1200.000
G1 X55.132 Y56.636 E0.01280
G1 X54.743 Y56.386 E0.01595
G1 X54.042 Y55.662 E0.03476
G1 X53.424 Y54.682 E0.03997
G1 X52.978 Y53.069 E0.05773
G1 X52.989 Y38.986 E0.48571
G1 X53.345 Y37.665 E0.04720
G1 X54.049 Y36.551 E0.04545
G1 X54.974 Y35.689 E0.04360
G1 X55.790 Y35.244 E0.03207
G1 X56.250 Y34.428 E0.03231
G1 X57.237 Y33.469 E0.04743
G1 X58.242 Y32.899 E0.03984
G1 X59.204 Y32.603 E0.03472
G1 X62.720 Y32.536 E0.12131
G1 X73.015 Y32.539 E0.35505
G1 X74.228 Y32.794 E0.04277
G1 X75.491 Y33.460 E0.04924
G1 X76.515 Y34.465 E0.04950
G1 X76.740 Y34.872 E0.01601
G1 X76.948 Y35.249 F10800.000
G1 F1200.000
G1 X77.171 Y35.653 E0.01594
G1 X77.445 Y35.825 E0.01115
G1 X78.386 Y36.765 E0.04586
G1 X79.092 Y38.056 E0.05076
G1 X79.361 Y39.262 E0.04262
G1 X79.373 Y42.282 E0.10415
G1 X170.627 Y42.282 E3.14731
G1 X170.627 Y39.133 E0.10862
G1 X170.943 Y37.789 E0.04761
G1 X171.698 Y36.542 E0.05030
G1 X172.654 Y35.666 E0.04472
G1 X173.381 Y35.273 E0.02847
G1 X173.392 Y35.248 E0.00094
G1 X173.612 Y34.871 F10800.000
G1 F1200.000
G1 X174.009 Y34.299 E0.02402
G1 X174.832 Y33.506 E0.03941
G1 X175.893 Y32.895 E0.04222
G1 X177.394 Y32.535 E0.05325
G1 X190.692 Y32.539 E0.45866
G1 X191.985 Y32.829 E0.04570
G1 X193.138 Y33.450 E0.04517
G1 X194.149 Y34.429 E0.04854
G1 X194.864 Y35.692 E0.05006
G1 X195.200 Y35.911 E0.01384
G1 X196.187 Y36.972 E0.04998
G1 X196.696 Y37.946 E0.03790
G1 X197.002 Y39.134 E0.04231
G1 X196.991 Y53.494 E0.49530
G1 X196.633 Y54.725 E0.04422
G1 X196.077 Y55.634 E0.03672
G1 X194.926 Y56.720 E0.05459
G1 X194.685 Y56.847 E0.00938
G1 X194.308 Y57.045 F10800.000
G1 F1200.000
G1 X194.209 Y57.098 E0.00388
G1 X193.747 Y57.916 E0.03240
G1 X192.689 Y58.928 E0.05049
G1 X191.638 Y59.490 E0.04110
G1 X190.456 Y59.780 E0.04196
G1 X187.713 Y59.794 E0.09460
G1 X187.713 Y150.196 E3.11792
G1 X190.723 Y150.205 E0.10381
G1 X192.039 Y150.512 E0.04661
G1 X193.186 Y151.145 E0.04517
G1 X194.182 Y152.133 E0.04840
G1 X194.309 Y152.364 E0.00908
G1 X194.686 Y153.054 F10800.000
G1 F1200.000
G1 X194.840 Y153.337 E0.01112
G1 X195.182 Y153.556 E0.01401
G1 X196.016 Y154.410 E0.04118
G1 X196.631 Y155.439 E0.04134
G1 X196.995 Y156.750 E0.04693
G1 X197.007 Y171.049 E0.49318
G1 X196.662 Y172.318 E0.04537
G1 X195.952 Y173.448 E0.04600
G1 X195.026 Y174.311 E0.04366
G1 X194.220 Y174.752 E0.03168
G1 X193.824 Y175.474 E0.02840
G1 X192.925 Y176.404 E0.04463
G1 X191.971 Y177.008 E0.03895
G1 X190.783 Y177.396 E0.04310
G1 X188.823 Y177.466 E0.06763
G1 X177.025 Y177.465 E0.40691
G1 X175.768 Y177.204 E0.04426
G1 X174.502 Y176.535 E0.04940
G1 X173.526 Y175.589 E0.04688
G1 X173.268 Y175.128 E0.01822
G1 X173.057 Y174.751 F10800.000
G1 F1200.000
G1 X172.831 Y174.348 E0.01595
G1 X172.555 Y174.175 E0.01122
G1 X171.619 Y173.242 E0.04558
G1 X170.933 Y172.012 E0.04858
G1 X170.640 Y170.748 E0.04475
G1 X170.627 Y167.709 E0.10481
G1 X79.373 Y167.709 E3.14731
G1 X79.373 Y170.867 E0.10894
G1 X79.057 Y172.210 E0.04758
G1 X78.309 Y173.451 E0.04998
G1 X77.402 Y174.294 E0.04270
G1 X76.569 Y174.752 E0.03277
G1 X76.348 Y175.129 F10800.000
G1 F1200.000
G1 X76.050 Y175.638 E0.02034
G1 X75.250 Y176.421 E0.03863
G1 X74.241 Y177.044 E0.04090
G1 X72.683 Y177.465 E0.05564
G1 X59.273 Y177.465 E0.46252
G1 X57.714 Y177.045 E0.05568
G1 X56.487 Y176.244 E0.05054
G1 X55.692 Y175.354 E0.04115
G1 X55.149 Y174.306 E0.04070
G1 X54.725 Y174.028 E0.01749
G1 X53.735 Y172.913 E0.05142
G1 X53.294 Y172.042 E0.03366
G1 X53.031 Y171.102 E0.03370
G1 X52.978 Y156.821 E0.49255
G1 X53.127 Y155.914 E0.03170
G1 X53.982 Y154.283 E0.06351
G1 X54.969 Y153.353 E0.04674
G1 X55.314 Y153.164 E0.01360
G1 X55.692 Y152.957 F10800.000
G1 F1200.000
G1 X55.778 Y152.910 E0.00339
G1 X56.237 Y152.104 E0.03202
G1 X57.131 Y151.208 E0.04365
G1 X58.302 Y150.535 E0.04657
G1 X59.656 Y150.206 E0.04806
G1 X62.287 Y150.202 E0.09073
G1 X62.287 Y59.804 E3.11779
M73 P0 R292
G1 X59.277 Y59.795 E0.10381
G1 X57.961 Y59.488 E0.04661
G1 X56.814 Y58.855 E0.04517
G1 X55.850 Y57.910 E0.04654
G1 X55.691 Y57.628 E0.01117
G1 X55.691 Y56.865 F10800.000
G1 F1200.000
G1 X56.135 Y57.662 E0.03145
G1 X57.020 Y58.538 E0.04293
G1 X58.119 Y59.145 E0.04332
G1 X59.339 Y59.422 E0.04315
G1 X62.664 Y59.427 E0.11466
G1 X62.664 Y150.580 E3.14382
G1 X59.723 Y150.578 E0.10143
G1 X58.418 Y150.895 E0.04632
G1 X57.343 Y151.520 E0.04288
G1 X56.524 Y152.350 E0.04020
G1 X56.053 Y153.190 E0.03323
G1 X55.692 Y153.385 E0.01418
G1 X55.314 Y153.589 F10800.000
G1 F1200.000
G1 X55.206 Y153.647 E0.00423
G1 X54.301 Y154.487 E0.04261
G1 X53.475 Y156.061 E0.06129
G1 X53.355 Y156.834 E0.02698
G1 X53.401 Y171.026 E0.48949
G1 X53.639 Y171.889 E0.03089
G1 X54.060 Y172.720 E0.03213
G1 X54.988 Y173.755 E0.04794
G1 X55.438 Y174.042 E0.01841
G1 X55.990 Y175.121 E0.04180
G1 X56.752 Y175.974 E0.03945
G1 X57.843 Y176.689 E0.04499
G1 X59.299 Y177.088 E0.05206
G1 X72.658 Y177.088 E0.46075
G1 X74.114 Y176.688 E0.05209
G1 X75.001 Y176.137 E0.03600
G1 X75.767 Y175.387 E0.03700
G1 X75.916 Y175.129 E0.01028
G1 X76.132 Y174.752 F10800.000
G1 F1200.000
G1 X76.293 Y174.472 E0.01111
G1 X77.163 Y174.001 E0.03413
G1 X78.032 Y173.193 E0.04091
G1 X78.718 Y172.043 E0.04620
G1 X78.996 Y170.846 E0.04237
G1 X78.996 Y167.332 E0.12121
G1 X171.004 Y167.332 E3.17330
G1 X171.012 Y170.686 E0.11567
M73 Q0 S297
G1 X171.276 Y171.852 E0.04125
G1 X171.935 Y173.035 E0.04668
G1 X172.802 Y173.889 E0.04200
G1 X173.112 Y174.076 E0.01247
G1 X173.484 Y174.751 E0.02661
G1 X173.693 Y175.128 F10800.000
G1 F1200.000
G1 X173.808 Y175.339 E0.00828
G1 X174.744 Y176.245 E0.04493
G1 X175.919 Y176.858 E0.04568
G1 X177.043 Y177.088 E0.03961
G1 X188.820 Y177.088 E0.40617
G1 X190.691 Y177.029 E0.06457
G1 X191.830 Y176.657 E0.04132
G1 X192.702 Y176.099 E0.03570
G1 X193.534 Y175.232 E0.04144
G1 X193.941 Y174.473 E0.02971
G1 X194.787 Y174.018 E0.03313
G1 X195.677 Y173.189 E0.04196
G1 X196.306 Y172.191 E0.04068
G1 X196.630 Y171.023 E0.04177
G1 X196.618 Y156.777 E0.49137
G1 X196.275 Y155.566 E0.04340
G1 X195.731 Y154.658 E0.03652
G1 X194.930 Y153.836 E0.03958
G1 X194.686 Y153.685 E0.00990
G1 X194.309 Y153.146 F10800.000
G1 F1200.000
G1 X193.895 Y152.379 E0.03002
G1 X192.980 Y151.462 E0.04470
G1 X191.881 Y150.855 E0.04330
G1 X190.661 Y150.578 E0.04316
G1 X187.336 Y150.573 E0.11465
G1 X187.336 Y59.418 E3.14389
G1 X190.390 Y59.408 E0.10532
G1 X191.482 Y59.146 E0.03872
G1 X192.487 Y58.608 E0.03933
G1 X193.463 Y57.665 E0.04680
G1 X193.934 Y56.815 E0.03352
G1 X194.308 Y56.622 E0.01452
G1 X194.685 Y56.428 F10800.000
G1 F1200.000
G1 X195.770 Y55.413 E0.05123
G1 X196.279 Y54.593 E0.03329
G1 X196.614 Y53.466 E0.04054
G1 X196.625 Y39.158 E0.49349
G1 X196.337 Y38.062 E0.03909
G1 X195.893 Y37.210 E0.03313
G1 X194.942 Y36.187 E0.04819
G1 X194.543 Y35.936 E0.01625
G1 X194.496 Y35.805 E0.00480
G1 X193.866 Y34.680 E0.04446
G1 X192.896 Y33.739 E0.04663
G1 X191.831 Y33.175 E0.04155
G1 X190.672 Y32.916 E0.04098
G1 X177.416 Y32.912 E0.45719
G1 X176.055 Y33.236 E0.04823
G1 X175.075 Y33.795 E0.03891
G1 X174.308 Y34.530 E0.03664
G1 X174.071 Y34.871 E0.01434
G1 X173.810 Y35.248 F10800.000
G1 F1200.000
G1 X173.676 Y35.544 E0.01119
G1 X172.891 Y35.961 E0.03065
G1 X171.973 Y36.801 E0.04291
G1 X171.282 Y37.957 E0.04646
G1 X171.004 Y39.154 E0.04239
G1 X171.004 Y42.659 E0.12089
G1 X78.996 Y42.659 E3.17330
G1 X78.989 Y39.322 E0.11509
G1 X78.748 Y38.213 E0.03915
G1 X78.069 Y36.970 E0.04884
G1 X77.198 Y36.111 E0.04221
G1 X76.889 Y35.924 E0.01243
G1 X76.522 Y35.249 E0.02653
G1 X76.316 Y34.872 F10800.000
G1 F1200.000
G1 X76.231 Y34.714 E0.00617
G1 X75.247 Y33.749 E0.04752
G1 X74.078 Y33.141 E0.04547
G1 X72.996 Y32.916 E0.03813
G1 X62.722 Y32.914 E0.35434
G1 X59.287 Y32.971 E0.11846
G1 X58.407 Y33.239 E0.03173
G1 X57.482 Y33.757 E0.03659
G1 X56.534 Y34.678 E0.04558
G1 X56.067 Y35.523 E0.03331
G1 X55.213 Y35.982 E0.03343
G1 X54.325 Y36.809 E0.04187
G1 X53.680 Y37.840 E0.04193
G1 X53.366 Y39.011 E0.04179
G1 X53.355 Y53.043 E0.48396
G1 X53.779 Y54.553 E0.05410
G1 X54.326 Y55.413 E0.03517
G1 X54.997 Y56.107 E0.03328
G1 X55.314 Y56.305 E0.01290
G1 X55.691 Y56.094 F10800.000
G1 F1200.000
G1 X55.775 Y56.145 E0.00339
G1 X55.842 Y56.360 E0.00776
G1 X56.422 Y57.415 E0.04150
G1 X57.228 Y58.222 E0.03934
G1 X58.230 Y58.783 E0.03962
G1 X59.402 Y59.050 E0.04147
G1 X63.041 Y59.050 E0.12549
G1 X63.041 Y150.958 E3.16988
G1 X59.789 Y150.950 E0.11213
G1 X58.534 Y151.254 E0.04455
G1 X57.557 Y151.832 E0.03914
G1 X56.813 Y152.594 E0.03676
G1 X56.330 Y153.471 E0.03453
G1 X55.692 Y153.809 E0.02492
G1 X55.314 Y154.061 F10800.000
G1 F1200.000
G1 X54.581 Y154.742 E0.03451
G1 X53.843 Y156.150 E0.05486
G1 X53.732 Y156.848 E0.02436
G1 X53.771 Y170.951 E0.48642
G1 X53.984 Y171.736 E0.02805
G1 X54.385 Y172.527 E0.03057
G1 X55.248 Y173.481 E0.04439
G1 X55.772 Y173.804 E0.02121
G1 X55.825 Y173.978 E0.00628
G1 X56.314 Y174.926 E0.03678
G1 X57.015 Y175.704 E0.03613
G1 X57.973 Y176.334 E0.03954
G1 X59.325 Y176.711 E0.04840
G1 X72.631 Y176.711 E0.45895
G1 X73.985 Y176.332 E0.04847
G1 X74.781 Y175.830 E0.03248
G1 X75.488 Y175.129 E0.03435
G1 X75.702 Y174.752 F10800.000
G1 F1200.000
G1 X76.018 Y174.191 E0.02221
G1 X76.925 Y173.708 E0.03543
G1 X77.755 Y172.936 E0.03908
G1 X78.378 Y171.877 E0.04238
G1 X78.619 Y170.825 E0.03723
G1 X78.619 Y166.955 E0.13349
G1 X171.380 Y166.955 E3.19931
G1 X171.385 Y170.625 E0.12660
G1 X171.619 Y171.693 E0.03771
G1 X172.251 Y172.827 E0.04474
G1 X173.047 Y173.601 E0.03832
G1 X173.444 Y173.832 E0.01582
G1 X173.508 Y174.035 E0.00735
G1 X173.911 Y174.751 E0.02835
G1 X174.123 Y175.128 F10800.000
G1 F1200.000
G1 X174.984 Y175.953 E0.04113
G1 X176.067 Y176.510 E0.04200
G1 X177.062 Y176.711 E0.03501
G1 X188.818 Y176.711 E0.40546
G1 X190.601 Y176.662 E0.06151
G1 X191.689 Y176.306 E0.03950
G1 X192.477 Y175.795 E0.03240
G1 X193.242 Y174.992 E0.03825
G1 X193.661 Y174.194 E0.03109
G1 X194.549 Y173.725 E0.03462
G1 X195.402 Y172.930 E0.04020
G1 X195.971 Y172.015 E0.03718
G1 X196.253 Y170.998 E0.03638
G1 X196.241 Y156.804 E0.48955
G1 X195.920 Y155.695 E0.03982
G1 X195.446 Y154.905 E0.03176
G1 X194.686 Y154.126 E0.03755
G1 X194.309 Y153.897 F10800.000
G1 F1200.000
G1 X194.222 Y153.845 E0.00347
G1 X194.158 Y153.640 E0.00743
G1 X193.578 Y152.585 E0.04151
G1 X192.772 Y151.778 E0.03934
G1 X191.770 Y151.217 E0.03962
G1 X190.598 Y150.950 E0.04147
G1 X186.959 Y150.950 E0.12549
G1 X186.959 Y59.041 E3.16990
G1 X190.324 Y59.036 E0.11603
G1 X191.369 Y58.785 E0.03708
G1 X192.284 Y58.289 E0.03589
G1 X193.179 Y57.416 E0.04312
G1 X193.658 Y56.531 E0.03472
G1 X194.308 Y56.203 E0.02510
G1 X194.685 Y55.914 F10800.000
G1 F1200.000
G1 X195.465 Y55.191 E0.03669
G1 X195.926 Y54.458 E0.02987
G1 X196.237 Y53.438 E0.03678
G1 X196.248 Y39.183 E0.49163
G1 X195.978 Y38.180 E0.03584
G1 X195.600 Y37.448 E0.02841
G1 X194.685 Y36.464 E0.04634
G1 X194.222 Y36.184 E0.01867
G1 X194.155 Y35.968 E0.00778
G1 X193.551 Y34.889 E0.04265
G1 X192.654 Y34.030 E0.04285
G1 X191.723 Y33.537 E0.03633
G1 X190.650 Y33.293 E0.03795
G1 X177.437 Y33.289 E0.45570
G1 X176.217 Y33.578 E0.04326
G1 X175.318 Y34.085 E0.03561
G1 X174.607 Y34.761 E0.03383
G1 X174.530 Y34.871 E0.00464
G1 X174.269 Y35.248 F10800.000
G1 F1200.000
G1 X174.116 Y35.469 E0.00924
G1 X173.974 Y35.814 E0.01290
G1 X173.127 Y36.256 E0.03293
G1 X172.249 Y37.060 E0.04105
G1 X171.622 Y38.123 E0.04257
G1 X171.381 Y39.175 E0.03723
G1 X171.381 Y43.036 E0.13317
G1 X78.620 Y43.036 E3.19931
M73 P0 R291
G1 X78.616 Y39.380 E0.12610
G1 X78.403 Y38.369 E0.03563
G1 X77.752 Y37.176 E0.04687
G1 X76.953 Y36.399 E0.03845
G1 X76.557 Y36.169 E0.01579
G1 X76.496 Y35.974 E0.00704
G1 X76.095 Y35.249 E0.02857
G1 X75.863 Y34.872 F10800.000
G1 F1200.000
G1 X75.006 Y34.040 E0.04119
G1 X73.929 Y33.489 E0.04172
G1 X72.977 Y33.293 E0.03355
G1 X62.723 Y33.291 E0.35365
G1 X59.370 Y33.340 E0.11565
G1 X58.571 Y33.579 E0.02876
G1 X57.726 Y34.045 E0.03329
G1 X56.818 Y34.928 E0.04367
G1 X56.345 Y35.804 E0.03434
G1 X55.451 Y36.275 E0.03485
G1 X54.600 Y37.069 E0.04014
G1 X54.036 Y37.967 E0.03658
G1 X53.743 Y39.037 E0.03825
G1 X53.732 Y53.016 E0.48215
G1 X54.133 Y54.422 E0.05042
G1 X54.610 Y55.164 E0.03042
G1 X55.251 Y55.826 E0.03177
G1 X55.314 Y55.865 E0.00257
G1 X55.691 Y55.656 F10800.000
G1 F1200.000
G1 X56.100 Y55.899 E0.01640
G1 X56.185 Y56.202 E0.01087
G1 X56.708 Y57.168 E0.03788
G1 X57.475 Y57.936 E0.03744
G1 X58.388 Y58.440 E0.03596
G1 X59.423 Y58.673 E0.03659
G1 X63.418 Y58.673 E0.13778
G1 X63.418 Y151.336 E3.19593
G1 X59.811 Y151.327 E0.12440
G1 X58.700 Y151.594 E0.03941
G1 X57.809 Y152.114 E0.03557
G1 X57.101 Y152.838 E0.03493
G1 X56.582 Y153.798 E0.03766
G1 X56.429 Y153.845 E0.00552
G1 X55.692 Y154.229 E0.02867
G1 X55.314 Y154.576 F10800.000
G1 F1200.000
G1 X54.861 Y154.996 E0.02132
G1 X54.210 Y156.241 E0.04846
G1 X54.109 Y156.863 E0.02173
G1 X54.142 Y170.878 E0.48339
G1 X54.330 Y171.584 E0.02517
G1 X54.710 Y172.333 E0.02898
G1 X55.507 Y173.205 E0.04075
G1 X56.099 Y173.559 E0.02377
G1 X56.171 Y173.826 E0.00955
G1 X56.637 Y174.731 E0.03510
G1 X57.278 Y175.432 E0.03277
G1 X58.105 Y175.980 E0.03421
G1 X59.351 Y176.334 E0.04469
G1 X72.605 Y176.334 E0.45711
G1 X73.854 Y175.978 E0.04482
G1 X74.531 Y175.548 E0.02764
G1 X74.956 Y175.129 E0.02058
G1 X75.275 Y174.752 F10800.000
G1 F1200.000
G1 X75.768 Y173.864 E0.03500
G1 X75.922 Y173.815 E0.00557
G1 X76.687 Y173.414 E0.02980
G1 X77.477 Y172.679 E0.03721
G1 X78.037 Y171.714 E0.03851
G1 X78.242 Y170.805 E0.03214
G1 X78.242 Y166.578 E0.14579
G1 X171.758 Y166.578 E3.22532
