; generated by PrusaSlicer 2.3.3+win64 on 2021-11-22 at 16:10:35 UTC

; 

; external perimeters extrusion width = 0.45mm
; perimeters extrusion width = 0.45mm
; infill extrusion width = 0.45mm
; solid infill extrusion width = 0.45mm
; top infill extrusion width = 0.40mm
; first layer extrusion width = 0.42mm

M73 P0 R28
M73 Q0 S29
M201 X1000 Y1000 Z200 E5000 ; sets maximum accelerations, mm/sec^2
M203 X200 Y200 Z12 E120 ; sets maximum feedrates, mm/sec
M204 P1250 R1250 T1250 ; sets acceleration (P, T) and retract acceleration (R), mm/sec^2
M205 X8.00 Y8.00 Z0.40 E4.50 ; sets the jerk limits, mm/sec
M205 S0 T0 ; sets the minimum extruding and travel feed rate, mm/sec
M107
;TYPE:Custom
M862.3 P "MK3S" ; printer model check
M862.1 P0.4 ; nozzle diameter check
M115 U3.10.0 ; tell printer latest fw version
G90 ; use absolute coordinates
M83 ; extruder relative mode
M104 S240 ; set extruder temp
M140 S50 ; set bed temp
M190 S50 ; wait for bed temp
M109 S240 ; wait for extruder temp
G28 W ; home all without mesh bed level
G80 ; mesh bed leveling
G1 Y-3.0 F1000.0 ; go outside print area
G92 E0.0
G1 X60.0 E9.0 F1000.0 ; intro line
G1 X100.0 E12.5 F1000.0 ; intro line
G92 E0.0
M221 S95

; Don't change E values below. Excessive value can damage the printer.

M907 E538 ; set extruder motor current
G21 ; set units to millimeters
G90 ; use absolute coordinates
M83 ; use relative distances for extrusion
M900 K0
;LAYER_CHANGE
;Z:0.2
;HEIGHT:0.2
;BEFORE_LAYER_CHANGE
G92 E0.0
;0.2


G1 E-1.20000 F2100.000
G1 Z0.200 F10800.000
;AFTER_LAYER_CHANGE
;0.2
G1 X60.751 Y41.565
G1 E1.20000 F1200.000
M204 S1000
;TYPE:Skirt
;WIDTH:0.42
G1 F1074.044
G1 X61.739 Y40.602 E0.04847
G1 X63.036 Y39.794 E0.05367
G1 X64.466 Y39.296 E0.05314
G1 X65.954 Y39.123 E0.05261
G1 X184.004 Y39.123 E4.14556
G1 X185.501 Y39.289 E0.05288
G1 X186.784 Y39.719 E0.04753
G1 X188.077 Y40.473 E0.05255
G1 X188.476 Y40.790 E0.01789
G1 X189.402 Y41.745 E0.04673
G1 X190.206 Y43.036 E0.05341
G1 X190.702 Y44.458 E0.05288
G1 X190.875 Y45.904 E0.05114
G1 X190.877 Y164.031 E4.14824
M73 P1 R28
M73 Q1 S28
G1 X190.710 Y165.505 E0.05208
G1 X190.284 Y166.777 E0.04713
G1 X189.249 Y168.435 E0.06860
G1 X188.261 Y169.398 E0.04847
G1 X186.960 Y170.207 E0.05381
G1 X185.527 Y170.705 E0.05328
G1 X184.016 Y170.877 E0.05341
G1 X65.969 Y170.877 E4.14543
G1 X64.495 Y170.710 E0.05208
G1 X63.223 Y170.284 E0.04713
G1 X61.565 Y169.249 E0.06860
G1 X60.602 Y168.261 E0.04847
G1 X59.791 Y166.957 E0.05394
G1 X59.295 Y165.527 E0.05314
G1 X59.123 Y164.016 E0.05341
G1 X59.123 Y45.969 E4.14543
M73 P2 R28
M73 Q2 S28
G1 X59.290 Y44.495 E0.05208
G1 X59.716 Y43.223 E0.04713
G1 X60.719 Y41.616 E0.06650
G1 E-1.20000 F2100.000
G1 X58.935 Y51.906 F10800.000
G1 E1.20000 F1200.000
G1 F1074.044
G1 X57.729 Y50.057 E0.07751
G1 X57.033 Y48.111 E0.07258
G1 X56.786 Y46.041 E0.07321
G1 X56.827 Y45.369 E0.02365
G1 X57.039 Y43.862 E0.05346
G1 X57.693 Y42.018 E0.06872
G1 X59.005 Y40.001 E0.08447
G1 X60.429 Y38.663 E0.06862
G1 X62.103 Y37.653 E0.06868
G1 X64.116 Y36.982 E0.07449
G1 X66.220 Y36.789 E0.07421
G1 X68.074 Y37.024 E0.06563
G1 X69.811 Y37.611 E0.06439
G1 X71.689 Y38.755 E0.07722
G1 X71.869 Y38.935 E0.00894
G1 X72.245 Y39.312 F10800.000
G1 F1074.044
G1 X73.262 Y40.330 E0.05054
G1 X74.204 Y41.808 E0.06153
G1 X74.394 Y42.287 E0.01809
G1 X175.605 Y42.287 E3.55419
G1 X175.808 Y41.786 E0.01898
G1 X176.782 Y40.275 E0.06313
G1 X177.761 Y39.311 E0.04825
G1 X178.145 Y38.934 F10800.000
G1 F1074.044
G1 X178.397 Y38.686 E0.01243
G1 X180.040 Y37.682 E0.06763
G1 X181.820 Y37.048 E0.06635
G1 X184.178 Y36.788 E0.08330
G1 X186.085 Y37.026 E0.06750
G1 X187.927 Y37.666 E0.06846
G1 X189.588 Y38.675 E0.06824
G1 X190.988 Y39.993 E0.06754
G1 X192.367 Y42.142 E0.08966
G1 X192.978 Y43.935 E0.06650
G1 X193.211 Y45.822 E0.06679
G1 X193.044 Y47.756 E0.06817
G1 X192.451 Y49.671 E0.07038
G1 X191.360 Y51.540 E0.07601
G1 X191.064 Y51.845 E0.01492
G1 X190.687 Y52.232 F10800.000
G1 F1074.044
G1 X189.726 Y53.218 E0.04835
G1 X188.172 Y54.214 E0.06480
G1 X187.713 Y54.399 E0.01739
G1 X187.713 Y155.596 E3.55373
G1 X188.092 Y155.746 E0.01430
G1 X189.619 Y156.699 E0.06321
G1 X190.688 Y157.730 E0.05215
G1 X191.065 Y158.094 F10800.000
G1 F1074.044
G1 X192.243 Y159.886 E0.07531
M73 P3 R28
G1 X192.963 Y161.871 E0.07413
G1 X193.212 Y163.866 E0.07061
G1 X193.174 Y164.624 E0.02666
G1 X192.986 Y166.033 E0.04992
G1 X192.313 Y167.971 E0.07205
M73 Q3 S28
G1 X191.105 Y169.865 E0.07889
G1 X189.656 Y171.272 E0.07092
G1 X187.902 Y172.345 E0.07220
G1 X185.926 Y173.009 E0.07320
G1 X183.812 Y173.211 E0.07459
G1 X181.746 Y172.933 E0.07318
G1 X179.993 Y172.296 E0.06552
G1 X178.422 Y171.333 E0.06471
G1 X178.151 Y171.066 E0.01335
G1 X177.770 Y170.688 F10800.000
G1 F1074.044
G1 X176.733 Y169.664 E0.05117
G1 X175.748 Y168.097 E0.06500
G1 X175.597 Y167.713 E0.01448
G1 X74.404 Y167.713 E3.55358
M73 P3 R27
G1 X74.254 Y168.092 E0.01430
G1 X73.301 Y169.619 E0.06321
G1 X72.270 Y170.688 E0.05216
G1 X71.906 Y171.065 F10800.000
G1 F1074.044
G1 X70.114 Y172.243 E0.07531
G1 X68.127 Y172.963 E0.07421
G1 X66.090 Y173.213 E0.07209
G1 X65.367 Y173.173 E0.02544
G1 X63.919 Y172.975 E0.05130
G1 X61.982 Y172.290 E0.07218
G1 X60.137 Y171.107 E0.07696
G1 X58.759 Y169.695 E0.06929
G1 X57.656 Y167.904 E0.07384
G1 X56.991 Y165.927 E0.07324
G1 X56.788 Y163.856 E0.07310
G1 X57.067 Y161.746 E0.07472
G1 X57.704 Y159.993 E0.06552
G1 X58.667 Y158.422 E0.06471
G1 X58.934 Y158.151 E0.01335
G1 X59.312 Y157.770 F10800.000
G1 F1074.044
G1 X60.336 Y156.733 E0.05117
G1 X61.903 Y155.748 E0.06500
G1 X62.287 Y155.597 E0.01448
G1 X62.287 Y54.399 E3.55374
G1 X61.862 Y54.232 E0.01603
G1 X60.413 Y53.326 E0.06000
G1 X59.312 Y52.268 E0.05362
G1 X59.312 Y51.746 F10800.000
G1 F1074.044
G1 X60.630 Y53.017 E0.06429
G1 X62.045 Y53.902 E0.05863
G1 X62.664 Y54.138 E0.02324
G1 X62.664 Y155.858 E3.57208
M73 P4 R27
M73 Q4 S28
G1 X62.087 Y156.078 E0.02167
G1 X60.555 Y157.041 E0.06355
G1 X59.312 Y158.299 E0.06212
G1 X58.934 Y158.707 F10800.000
G1 F1074.044
G1 X58.036 Y160.173 E0.06039
G1 X57.428 Y161.855 E0.06280
G1 X57.166 Y163.841 E0.07032
G1 X57.364 Y165.869 E0.07157
G1 X58.006 Y167.763 E0.07021
G1 X59.068 Y169.478 E0.07085
G1 X60.391 Y170.827 E0.06635
G1 X62.166 Y171.960 E0.07396
G1 X63.989 Y172.604 E0.06790
G1 X65.410 Y172.798 E0.05036
G1 X66.094 Y172.836 E0.02404
G1 X68.059 Y172.592 E0.06955
G1 X69.964 Y171.896 E0.07122
G1 X71.239 Y171.065 E0.05344
G1 X71.746 Y170.688 F10800.000
G1 F1074.044
G1 X72.992 Y169.403 E0.06286
G1 X73.924 Y167.909 E0.06182
G1 X74.142 Y167.336 E0.02152
G1 X175.858 Y167.336 E3.57195
M73 Q4 S27
G1 X176.078 Y167.913 E0.02167
G1 X177.041 Y169.445 E0.06355
G1 X178.299 Y170.688 E0.06212
G1 X178.707 Y171.066 F10800.000
G1 F1074.044
G1 X180.173 Y171.964 E0.06039
G1 X181.856 Y172.572 E0.06281
G1 X183.798 Y172.834 E0.06884
G1 X185.827 Y172.645 E0.07155
G1 X187.761 Y171.995 E0.07166
G1 X189.440 Y170.962 E0.06921
G1 X190.826 Y169.611 E0.06796
G1 X191.982 Y167.788 E0.07583
G1 X192.615 Y165.964 E0.06777
G1 X192.799 Y164.582 E0.04898
G1 X192.835 Y163.864 E0.02525
G1 X192.591 Y161.939 E0.06812
G1 X191.896 Y160.036 E0.07116
G1 X191.065 Y158.761 E0.05344
G1 X190.688 Y158.254 F10800.000
G1 F1074.044
G1 X189.403 Y157.008 E0.06285
G1 X187.909 Y156.076 E0.06182
G1 X187.336 Y155.858 E0.02152
G1 X187.336 Y54.141 E3.57198
M73 P5 R27
M73 Q5 S27
G1 X187.985 Y53.886 E0.02448
G1 X189.504 Y52.912 E0.06336
G1 X190.687 Y51.699 E0.05949
G1 X191.064 Y51.301 F10800.000
G1 F1074.044
G1 X192.097 Y49.537 E0.07177
G1 X192.670 Y47.702 E0.06751
G1 X192.834 Y45.848 E0.06539
G1 X192.615 Y44.038 E0.06403
G1 X192.018 Y42.286 E0.06500
G1 X190.713 Y40.252 E0.08485
G1 X189.344 Y38.964 E0.06602
G1 X187.749 Y37.999 E0.06543
G1 X185.982 Y37.389 E0.06567
G1 X184.154 Y37.165 E0.06466
G1 X181.926 Y37.411 E0.07871
G1 X180.186 Y38.030 E0.06488
G1 X178.714 Y38.934 E0.06066
G1 X178.292 Y39.311 F10800.000
G1 F1074.044
G1 X177.087 Y40.496 E0.05935
G1 X176.135 Y41.974 E0.06172
G1 X175.862 Y42.664 E0.02606
G1 X74.134 Y42.664 E3.57236
G1 X73.876 Y41.994 E0.02521
G1 X72.955 Y40.550 E0.06012
G1 X71.720 Y39.312 E0.06143
G1 X71.261 Y38.935 F10800.000
G1 F1074.044
G1 X69.670 Y37.962 E0.06550
G1 X67.971 Y37.387 E0.06297
G1 X66.194 Y37.166 E0.06289
G1 X64.173 Y37.355 E0.07129
G1 X62.243 Y38.003 E0.07147
G1 X60.641 Y38.975 E0.06579
G1 X59.280 Y40.260 E0.06573
G1 X58.022 Y42.204 E0.08131
G1 X57.401 Y43.969 E0.06571
G1 X57.202 Y45.413 E0.05121
G1 X57.163 Y46.047 E0.02229
G1 X57.405 Y48.045 E0.07067
G1 X58.058 Y49.871 E0.06812
G1 X58.935 Y51.234 E0.05688
G1 X59.312 Y51.130 F10800.000
G1 F1074.044
G1 X59.465 Y51.371 E0.01002
G1 X60.846 Y52.708 E0.06750
G1 X62.229 Y53.572 E0.05724
G1 X63.041 Y53.876 E0.03045
G1 X63.041 Y156.121 E3.59053
M73 P6 R27
G1 X62.271 Y156.408 E0.02885
G1 X60.774 Y157.349 E0.06208
G1 X59.312 Y158.829 E0.07306
G1 X58.934 Y159.426 F10800.000
G1 F1074.044
G1 X58.384 Y160.320 E0.03687
G1 X57.790 Y161.964 E0.06140
G1 X57.543 Y163.826 E0.06595
M73 Q6 S27
G1 X57.729 Y165.769 E0.06853
G1 X58.356 Y167.621 E0.06866
G1 X59.377 Y169.261 E0.06783
G1 X60.644 Y170.547 E0.06341
G1 X62.350 Y171.630 E0.07096
G1 X64.059 Y172.233 E0.06365
G1 X65.453 Y172.423 E0.04941
G1 X66.097 Y172.459 E0.02266
G1 X67.951 Y172.230 E0.06558
G1 X69.777 Y171.568 E0.06822
G1 X70.553 Y171.065 E0.03245
G1 X71.134 Y170.688 F10800.000
G1 F1074.044
G1 X71.370 Y170.536 E0.00986
G1 X72.683 Y169.186 E0.06613
G1 X73.593 Y167.726 E0.06042
G1 X73.879 Y166.959 E0.02874
G1 X176.121 Y166.959 E3.59042
G1 X176.408 Y167.729 E0.02885
G1 X177.349 Y169.226 E0.06208
G1 X178.829 Y170.688 E0.07306
G1 X179.426 Y171.066 F10800.000
G1 F1074.044
G1 X180.320 Y171.616 E0.03687
G1 X181.964 Y172.210 E0.06140
G1 X183.826 Y172.457 E0.06596
G1 X185.769 Y172.271 E0.06853
G1 X187.620 Y171.644 E0.06862
G1 X189.224 Y170.653 E0.06623
G1 X190.546 Y169.357 E0.06500
G1 X191.652 Y167.605 E0.07277
G1 X192.244 Y165.896 E0.06351
G1 X192.424 Y164.540 E0.04804
G1 X192.458 Y163.862 E0.02385
G1 X192.229 Y162.048 E0.06420
G1 X191.568 Y160.223 E0.06817
G1 X191.065 Y159.447 E0.03245
G1 X190.688 Y158.866 F10800.000
G1 F1074.044
G1 X190.536 Y158.630 E0.00986
G1 X189.186 Y157.317 E0.06613
G1 X187.726 Y156.407 E0.06042
G1 X186.959 Y156.121 E0.02874
G1 X186.959 Y53.881 E3.59033
G1 X187.798 Y53.558 E0.03158
G1 X189.283 Y52.606 E0.06192
M73 P6 R26
G1 X190.687 Y51.167 E0.07061
G1 X191.064 Y50.558 F10800.000
G1 F1074.044
G1 X191.744 Y49.403 E0.04707
G1 X192.297 Y47.648 E0.06463
G1 X192.458 Y45.873 E0.06258
G1 X192.243 Y44.103 E0.06262
G1 X191.668 Y42.430 E0.06213
G1 X190.437 Y40.510 E0.08009
G1 X189.131 Y39.275 E0.06312
G1 X187.606 Y38.349 E0.06264
G1 X185.916 Y37.761 E0.06286
G1 X184.130 Y37.542 E0.06318
G1 X182.031 Y37.773 E0.07415
M73 P7 R26
G1 X180.366 Y38.362 E0.06202
G1 X179.434 Y38.934 E0.03840
G1 X178.823 Y39.311 F10800.000
G1 F1074.044
G1 X177.393 Y40.718 E0.07046
G1 X176.463 Y42.161 E0.06029
G1 X176.121 Y43.041 E0.03312
G1 X73.873 Y43.041 E3.59063
M73 Q7 S27
G1 X73.547 Y42.180 E0.03233
G1 X72.648 Y40.770 E0.05870
G1 X71.257 Y39.374 E0.06924
G1 X71.156 Y39.312 E0.00415
G1 X70.542 Y38.935 F10800.000
G1 F1074.044
G1 X69.528 Y38.312 E0.04180
G1 X67.906 Y37.759 E0.06019
G1 X66.168 Y37.543 E0.06148
G1 X64.231 Y37.729 E0.06835
G1 X62.385 Y38.354 E0.06846
G1 X60.855 Y39.286 E0.06290
G1 X59.556 Y40.517 E0.06284
G1 X58.351 Y42.389 E0.07817
G1 X57.772 Y44.039 E0.06141
G1 X57.576 Y45.458 E0.05029
G1 X57.540 Y46.053 E0.02094
G1 X57.767 Y47.939 E0.06671
G1 X58.388 Y49.687 E0.06513
G1 X58.935 Y50.541 E0.03563
G1 X59.312 Y50.436 F10800.000
G1 F1074.044
G1 X59.744 Y51.116 E0.02830
G1 X61.063 Y52.399 E0.06461
G1 X62.412 Y53.241 E0.05583
G1 X63.418 Y53.612 E0.03766
G1 X63.418 Y156.385 E3.60907
G1 X62.454 Y156.738 E0.03603
G1 X60.993 Y157.657 E0.06060
G1 X59.597 Y159.069 E0.06975
G1 X59.312 Y159.533 E0.01911
G1 X58.934 Y160.145 F10800.000
G1 F1074.044
G1 X58.715 Y160.501 E0.01467
G1 X58.152 Y162.072 E0.05863
G1 X57.920 Y163.853 E0.06307
G1 X58.102 Y165.710 E0.06551
G1 X58.705 Y167.478 E0.06561
G1 X59.685 Y169.042 E0.06482
G1 X60.896 Y170.266 E0.06047
G1 X62.533 Y171.300 E0.06798
G1 X64.129 Y171.862 E0.05942
G1 X65.496 Y172.049 E0.04847
G1 X66.101 Y172.081 E0.02127
G1 X67.843 Y171.868 E0.06164
G1 X69.591 Y171.239 E0.06523
G1 X69.861 Y171.065 E0.01127
G1 X70.446 Y170.688 F10800.000
G1 F1074.044
G1 X71.115 Y170.257 E0.02797
G1 X72.374 Y168.969 E0.06324
G1 X73.263 Y167.544 E0.05899
G1 X73.615 Y166.582 E0.03595
G1 X176.385 Y166.582 E3.60898
M73 P8 R26
M73 Q8 S26
G1 X176.738 Y167.546 E0.03603
G1 X177.657 Y169.007 E0.06060
G1 X179.069 Y170.403 E0.06975
G1 X179.533 Y170.688 E0.01911
G1 X180.145 Y171.066 F10800.000
G1 F1074.044
G1 X180.501 Y171.285 E0.01467
G1 X182.072 Y171.848 E0.05863
G1 X183.853 Y172.080 E0.06307
G1 X185.710 Y171.898 E0.06551
G1 X187.477 Y171.295 E0.06557
G1 X189.006 Y170.344 E0.06325
G1 X190.266 Y169.104 E0.06204
G1 X191.321 Y167.423 E0.06972
G1 X191.872 Y165.827 E0.05928
G1 X192.049 Y164.498 E0.04709
G1 X192.080 Y163.860 E0.02245
G1 X191.867 Y162.155 E0.06031
G1 X191.239 Y160.408 E0.06519
G1 X191.065 Y160.139 E0.01128
G1 X190.688 Y159.554 F10800.000
G1 F1074.044
G1 X190.257 Y158.885 E0.02796
G1 X188.969 Y157.626 E0.06324
G1 X187.544 Y156.737 E0.05899
G1 X186.582 Y156.385 E0.03595
G1 X186.582 Y53.621 E3.60877
G1 X187.612 Y53.229 E0.03867
G1 X189.061 Y52.300 E0.06046
G1 X190.421 Y50.907 E0.06836
G1 X190.687 Y50.458 E0.01833
G1 X191.064 Y49.822 F10800.000
G1 F1074.044
G1 X191.391 Y49.268 E0.02258
G1 X191.923 Y47.592 E0.06175
G1 X192.081 Y45.897 E0.05978
G1 X191.880 Y44.206 E0.05981
G1 X191.319 Y42.573 E0.06062
G1 X190.161 Y40.768 E0.07534
G1 X188.917 Y39.586 E0.06024
G1 X187.463 Y38.698 E0.05981
G1 X185.811 Y38.124 E0.06142
G1 X184.107 Y37.919 E0.06029
G1 X182.136 Y38.136 E0.06961
G1 X180.511 Y38.711 E0.06055
G1 X180.148 Y38.934 E0.01495
G1 X179.538 Y39.311 F10800.000
G1 F1074.044
G1 X179.045 Y39.616 E0.02034
G1 X177.699 Y40.940 E0.06632
G1 X176.790 Y42.349 E0.05886
G1 X176.381 Y43.418 E0.04019
G1 X73.610 Y43.418 E3.60899
M73 P9 R26
M73 Q9 S26
G1 X73.218 Y42.365 E0.03944
G1 X72.341 Y40.990 E0.05727
G1 X71.039 Y39.683 E0.06479
G1 X70.439 Y39.312 E0.02479
G1 X69.828 Y38.935 F10800.000
G1 F1074.044
G1 X69.386 Y38.662 E0.01825
G1 X67.803 Y38.122 E0.05875
G1 X66.144 Y37.920 E0.05869
G1 X64.290 Y38.102 E0.06541
G1 X62.526 Y38.704 E0.06544
G1 X61.070 Y39.597 E0.06001
G1 X59.833 Y40.774 E0.05996
G1 X58.681 Y42.574 E0.07503
G1 X58.143 Y44.109 E0.05714
G1 X57.951 Y45.502 E0.04937
G1 X57.918 Y46.058 E0.01958
G1 X58.130 Y47.834 E0.06278
G1 X58.718 Y49.503 E0.06215
G1 X58.935 Y49.844 E0.01419
G1 X59.312 Y49.737 F10800.000
G1 F1074.044
G1 X60.024 Y50.862 E0.04677
G1 X61.281 Y52.090 E0.06170
G1 X62.594 Y52.911 E0.05440
G1 X63.795 Y53.348 E0.04486
G1 X63.795 Y156.651 E3.62768
G1 X62.637 Y157.068 E0.04321
G1 X61.212 Y157.964 E0.05911
G1 X59.906 Y159.286 E0.06526
G1 X59.312 Y160.247 E0.03967
G1 X58.934 Y161.007 F10800.000
G1 F1074.044
G1 X58.514 Y162.180 E0.04376
G1 X58.297 Y163.879 E0.06016
G1 X58.475 Y165.650 E0.06249
G1 X59.055 Y167.334 E0.06255
G1 X59.993 Y168.823 E0.06181
G1 X61.148 Y169.985 E0.05753
G1 X62.716 Y170.969 E0.06500
G1 X64.199 Y171.491 E0.05522
G1 X65.540 Y171.674 E0.04752
G1 X66.105 Y171.704 E0.01987
G1 X67.737 Y171.506 E0.05774
G1 X68.971 Y171.065 E0.04602
G1 X69.752 Y170.688 F10800.000
G1 F1074.044
G1 X70.861 Y169.977 E0.04626
G1 X72.065 Y168.751 E0.06033
G1 X72.932 Y167.361 E0.05754
G1 X73.349 Y166.205 E0.04316
G1 X176.651 Y166.205 E3.62763
M73 P10 R26
G1 X177.068 Y167.363 E0.04321
G1 X177.964 Y168.788 E0.05911
G1 X179.286 Y170.094 E0.06526
G1 X180.247 Y170.688 E0.03967
G1 X181.007 Y171.066 F10800.000
G1 F1074.044
G1 X182.180 Y171.486 E0.04377
G1 X183.879 Y171.703 E0.06016
G1 X185.650 Y171.525 E0.06250
G1 X187.334 Y170.945 E0.06253
G1 X188.788 Y170.035 E0.06027
G1 X189.984 Y168.852 E0.05908
G1 X190.990 Y167.242 E0.06667
G1 X191.501 Y165.759 E0.05507
G1 X191.674 Y164.456 E0.04615
M73 Q10 S26
G1 X191.703 Y163.858 E0.02104
G1 X191.505 Y162.262 E0.05646
G1 X191.065 Y161.029 E0.04599
G1 X190.688 Y160.248 F10800.000
G1 F1074.044
G1 X189.977 Y159.139 E0.04626
G1 X188.751 Y157.935 E0.06033
G1 X187.361 Y157.068 E0.05754
